assets/icons/drive/harddisk-broken-filled.svg

<?xml version="1.0" encoding="UTF-8" standalone="no"?>
<svg viewBox="0 0 24 24" height="24" width="24" version="1.1" id="svg10" sodipodi:docname="harddisk-broken-filled.svg" inkscape:version="1.2 (1:1.2.1+202207142221+cd75a1ee6d)"
   xmlns:inkscape="http://www.inkscape.org/namespaces/inkscape"
   xmlns:sodipodi="http://sodipodi.sourceforge.net/DTD/sodipodi-0.dtd"
   xmlns="http://www.w3.org/2000/svg"
   xmlns:svg="http://www.w3.org/2000/svg">
   <defs id="defs14" />
   <sodipodi:namedview id="namedview12" pagecolor="#ffffff" bordercolor="#666666" borderopacity="1.0" inkscape:pageshadow="2" inkscape:pageopacity="0.0" inkscape:pagecheckerboard="0" showgrid="true" inkscape:snap-page="true" inkscape:zoom="27.018402" inkscape:cx="1.7025433" inkscape:cy="15.008289" inkscape:window-width="1846" inkscape:window-height="1016" inkscape:window-x="0" inkscape:window-y="0" inkscape:window-maximized="1" inkscape:current-layer="svg10" inkscape:showpageshadow="2" inkscape:deskcolor="#d1d1d1">
      <inkscape:grid type="xygrid" id="grid957" />
   </sodipodi:namedview>
   <path id="path860" style="color:#000000;fill:#808080;fill-opacity:1" d="M 7.4550781 2 C 6.4864983 2.0089807 5.7372585 2.0732698 5.1171875 2.4453125 C 4.7038068 2.693341 4.3972495 3.1012204 4.2285156 3.6074219 C 4.0597819 4.1136234 4 4.7222238 4 5.5 L 4 12 L 7.4238281 12 C 7.9262184 10.851346 8.8512895 9.8922786 10.085938 9.3808594 C 10.670632 9.1385816 11.294577 9.0093 11.925781 9 C 12.015953 8.9987 12.106916 9.0003063 12.197266 9.0039062 C 13.523893 9.0610882 14.773293 9.6436257 15.669922 10.623047 L 16.353516 11.353516 L 15.707031 12 L 20 12 L 20 5.5 C 20 4.7222238 19.94022 4.1136234 19.771484 3.6074219 C 19.602751 3.1012204 19.296194 2.693341 18.882812 2.4453125 C 18.056052 1.9492557 16.999997 2 15.5 2 L 8.5 2 C 8.1250009 2 7.7779381 1.9970064 7.4550781 2 z M 11.976562 10.003906 C 11.469238 10.005613 10.957603 10.103463 10.46875 10.304688 C 9.6282969 10.653061 8.9659704 11.260672 8.5390625 12 L 12 12 L 14.292969 12 L 14.964844 11.328125 C 14.186938 10.463551 13.092676 10.000152 11.976562 10.003906 z M 4 15 L 4 18.5 C 4 19.277776 4.0597822 19.886377 4.2285156 20.392578 C 4.3972495 20.89878 4.7038068 21.306659 5.1171875 21.554688 C 5.9439489 22.050745 7.0000035 22 8.5 22 L 15.5 22 C 16.999997 22 18.056051 22.050739 18.882812 21.554688 C 19.296194 21.306659 19.602751 20.89878 19.771484 20.392578 C 19.940218 19.886377 20 19.277776 20 18.5 L 20 15 L 16.896484 15 C 16.478143 17.052914 14.800839 18.674303 12.652344 18.957031 C 10.164901 19.284724 7.8197662 17.718236 7.1699219 15.294922 C 7.1436054 15.196755 7.1256159 15.098404 7.1054688 15 L 4 15 z M 8.1289062 15 C 8.1319385 15.011736 8.1335756 15.023427 8.1367188 15.035156 C 8.6565401 16.973312 10.531944 18.226365 12.521484 17.964844 C 14.169565 17.748133 15.471413 16.546235 15.871094 15 L 13.707031 15 A 2 2 0 0 1 12 16 A 2 2 0 0 1 10.292969 15 L 8.1289062 15 z " />
   <rect style="fill:#808080;stroke-width:15.1181;stroke-linejoin:round" id="rect343" width="20" height="1" x="2" y="13" />
</svg>

<svg height="24" width="24" xmlns="http://www.w3.org/2000/svg"><path style="color:#000;fill:gray;fill-opacity:1" d="M7.455 2c-.969.009-1.718.073-2.338.445-.413.248-.72.656-.888 1.162C4.059 4.114 4 4.722 4 5.5V12h3.424a4.984 4.984 0 0 1 4.773-2.996 5 5 0 0 1 3.473 1.619l.684.73-.647.647H20V5.5c0-.778-.06-1.386-.229-1.893-.168-.506-.475-.914-.888-1.162C18.056 1.95 17 2 15.5 2h-7c-.375 0-.722-.003-1.045 0zm4.522 8.004c-.508.002-1.02.1-1.508.3A3.987 3.987 0 0 0 8.539 12h5.754l.672-.672a4 4 0 0 0-2.988-1.324zM4 15v3.5c0 .778.06 1.386.229 1.893.168.506.475.914.888 1.162C5.944 22.05 7 22 8.5 22h7c1.5 0 2.556.05 3.383-.445.413-.248.72-.656.888-1.162.17-.507.229-1.115.229-1.893V15h-3.104a5 5 0 0 1-9.726.295c-.026-.098-.044-.197-.065-.295H4zm4.129 0 .008.035A4 4 0 0 0 15.87 15h-2.164A2 2 0 0 1 12 16a2 2 0 0 1-1.707-1H8.129z"/><path style="fill:gray;stroke-width:15.1181;stroke-linejoin:round" d="M2 13h20v1H2z"/></svg>
